X: 2805
T: Bantry Bay
R: hornpipe
M: 4/4
K: Gmajor
D/G/A|:BABG E2 D/E/F|G2 GF G2 AG|EAAB cBA^G & E2 x6|A/B/A ^GB A2 AB|
c4 B4 & cece BdBd|ABAG EG D>c|BABG AF D/E/F|G2 GF G3 "@-18,17 2nd"G & GDB,D [D3G,3] "@-2,-23 1st"D:|
|:d2 eB dBGB|e2 e2 e3f|g2 ed BGBd|g/a/g x6 & eg fa g2 ef|
gbgf efed|BABG EG D>c|BABG AF D/E/F|G2 GF G3x/ "@-14,14 1st"[BG] & (3GFE (3DB,A, [D3G,3]x/ "@-25,-23 2nd"D:|

